packages/icons/src/svg/file-salesforce.svg

<svg xmlns="http://www.w3.org/2000/svg" viewBox="0 0 16 16">
	<g fill="none">
		<path fill="#FFF" d="M5.0078 9.167C4.9858 9.227 5.0168 9.239 5.0238 9.249 5.0918 9.298 5.1588 9.334 5.2288 9.373 5.5958 9.568 5.9438 9.625 6.3058 9.625 7.0438 9.625 7.5028 9.232 7.5028 8.6L7.5028 8.587C7.5028 8.002 6.9858 7.79 6.4998 7.636L6.4368 7.616C6.0698 7.497 5.7538 7.395 5.7538 7.153L5.7538 7.141C5.7538 6.935 5.9398 6.783 6.2258 6.783 6.5428 6.783 6.9208 6.889 7.1628 7.023 7.1628 7.023 7.2358 7.069 7.2618 7 7.2758 6.962 7.3988 6.632 7.4108 6.596 7.4258 6.557 7.4018 6.528 7.3758 6.513 7.0978 6.344 6.7138 6.229 6.3178 6.229L6.2438 6.229C5.5678 6.229 5.0958 6.638 5.0958 7.223L5.0958 7.235C5.0958 7.851 5.6158 8.052 6.1048 8.191L6.1828 8.215C6.5378 8.324 6.8448 8.418 6.8448 8.668L6.8448 8.681C6.8448 8.91 6.6448 9.08 6.3238 9.08 6.1988 9.08 5.8018 9.078 5.3728 8.806 5.3208 8.776 5.2908 8.754 5.2508 8.73 5.2298 8.716 5.1768 8.694 5.1538 8.763L5.0078 9.167zM10.6006 4.9682C10.5346 4.9472 10.4736 4.9342 10.3946 4.9202 10.3146 4.9052 10.2186 4.8972 10.1116 4.8972 9.7336 4.8972 9.4366 5.0042 9.2276 5.2152 9.0196 5.4242 8.8786 5.7422 8.8076 6.1612L8.7826 6.3022 8.3086 6.3022C8.3086 6.3022 8.2506 6.3002 8.2396 6.3632L8.1616 6.7972C8.1556 6.8382 8.1726 6.8642 8.2286 6.8642L8.6906 6.8642 8.2216 9.4762C8.1856 9.6862 8.1436 9.8592 8.0966 9.9902 8.0516 10.1202 8.0066 10.2172 7.9516 10.2872 7.8986 10.3552 7.8476 10.4052 7.7606 10.4352 7.6886 10.4582 7.6056 10.4692 7.5146 10.4692 7.4646 10.4692 7.3976 10.4612 7.3476 10.4512 7.2976 10.4422 7.2726 10.4302 7.2356 10.4152 7.2356 10.4152 7.1816 10.3942 7.1596 10.4482 7.1426 10.4932 7.0196 10.8312 7.0046 10.8732 6.9906 10.9142 7.0106 10.9462 7.0376 10.9562 7.0986 10.9772 7.1446 10.9922 7.2276 11.0112 7.3436 11.0392 7.4426 11.0402 7.5336 11.0402 7.7256 11.0402 7.9006 11.0132 8.0456 10.9612 8.1916 10.9082 8.3186 10.8162 8.4316 10.6922 8.5526 10.5582 8.6286 10.4172 8.7026 10.2252 8.7746 10.0352 8.8356 9.7992 8.8856 9.5242L9.3556 6.8642 10.0426 6.8642C10.0426 6.8642 10.1016 6.8662 10.1136 6.8032L10.1906 6.3692C10.1966 6.3282 10.1786 6.3022 10.1226 6.3022L9.4556 6.3022C9.4586 6.2872 9.4896 6.0522 9.5666 5.8322 9.5986 5.7372 9.6606 5.6612 9.7126 5.6092 9.7636 5.5572 9.8226 5.5212 9.8866 5.5002 9.9536 5.4792 10.0286 5.4682 10.1116 5.4682 10.1736 5.4682 10.2356 5.4762 10.2826 5.4852 10.3466 5.4992 10.3716 5.5062 10.3896 5.5112 10.4566 5.5322 10.4656 5.5122 10.4796 5.4792L10.6386 5.0412C10.6556 4.9942 10.6166 4.9742 10.6006 4.9682"/>
		<path fill="#2FB1E6" d="M6.6582,3.7221 C7.1742,3.1841 7.8922,2.8511 8.6862,2.8511 C9.7432,2.8511 10.6652,3.4401 11.1552,4.3141 C11.5822,4.1241 12.0542,4.0181 12.5512,4.0181 C14.4552,4.0181 16.0002,5.5761 16.0002,7.4971 C16.0002,9.4191 14.4552,10.9771 12.5512,10.9771 C12.3182,10.9771 12.0912,10.9531 11.8712,10.9091 C11.4392,11.6801 10.6152,12.2011 9.6702,12.2011 C9.2742,12.2011 8.9002,12.1101 8.5672,11.9471 C8.1292,12.9771 7.1082,13.7001 5.9192,13.7001 C4.6802,13.7001 3.6242,12.9161 3.2192,11.8171 C3.0422,11.8541 2.8582,11.8741 2.6702,11.8741 C1.1952,11.8741 0.0002,10.6661 0.0002,9.1761 C0.0002,8.1771 0.5372,7.3051 1.3352,6.8381 C1.1712,6.4601 1.0792,6.0431 1.0792,5.6041 C1.0792,3.8901 2.4712,2.5011 4.1872,2.5011 C5.1942,2.5011 6.0902,2.9801 6.6582,3.7221 M5.0078,9.167 C4.9858,9.227 5.0168,9.239 5.0238,9.249 C5.0918,9.298 5.1588,9.334 5.2288,9.373 C5.5958,9.568 5.9438,9.625 6.3058,9.625 C7.0438,9.625 7.5028,9.232 7.5028,8.6 L7.5028,8.587 C7.5028,8.002 6.9858,7.79 6.4998,7.636 L6.4368,7.616 C6.0698,7.497 5.7538,7.395 5.7538,7.153 L5.7538,7.141 C5.7538,6.935 5.9398,6.783 6.2258,6.783 C6.5428,6.783 6.9208,6.889 7.1628,7.023 C7.1628,7.023 7.2358,7.069 7.2618,7 C7.2758,6.962 7.3988,6.632 7.4108,6.596 C7.4258,6.557 7.4018,6.528 7.3758,6.513 C7.0978,6.344 6.7138,6.229 6.3178,6.229 L6.2438,6.229 C5.5678,6.229 5.0958,6.638 5.0958,7.223 L5.0958,7.235 C5.0958,7.851 5.6158,8.052 6.1048,8.191 L6.1828,8.215 C6.5378,8.324 6.8448,8.418 6.8448,8.668 L6.8448,8.681 C6.8448,8.91 6.6448,9.08 6.3238,9.08 C6.1988,9.08 5.8018,9.078 5.3728,8.806 C5.3208,8.776 5.2908,8.754 5.2508,8.73 C5.2298,8.716 5.1768,8.694 5.1538,8.763 L5.0078,9.167 Z M10.6006,4.9682 C10.5346,4.9472 10.4736,4.9342 10.3946,4.9202 C10.3146,4.9052 10.2186,4.8972 10.1116,4.8972 C9.7336,4.8972 9.4366,5.0042 9.2276,5.2152 C9.0196,5.4242 8.8786,5.7422 8.8076,6.1612 L8.7826,6.3022 L8.3086,6.3022 C8.3086,6.3022 8.2506,6.3002 8.2396,6.3632 L8.1616,6.7972 C8.1556,6.8382 8.1726,6.8642 8.2286,6.8642 L8.6906,6.8642 L8.2216,9.4762 C8.1856,9.6862 8.1436,9.8592 8.0966,9.9902 C8.0516,10.1202 8.0066,10.2172 7.9516,10.2872 C7.8986,10.3552 7.8476,10.4052 7.7606,10.4352 C7.6886,10.4582 7.6056,10.4692 7.5146,10.4692 C7.4646,10.4692 7.3976,10.4612 7.3476,10.4512 C7.2976,10.4422 7.2726,10.4302 7.2356,10.4152 C7.2356,10.4152 7.1816,10.3942 7.1596,10.4482 C7.1426,10.4932 7.0196,10.8312 7.0046,10.8732 C6.9906,10.9142 7.0106,10.9462 7.0376,10.9562 C7.0986,10.9772 7.1446,10.9922 7.2276,11.0112 C7.3436,11.0392 7.4426,11.0402 7.5336,11.0402 C7.7256,11.0402 7.9006,11.0132 8.0456,10.9612 C8.1916,10.9082 8.3186,10.8162 8.4316,10.6922 C8.5526,10.5582 8.6286,10.4172 8.7026,10.2252 C8.7746,10.0352 8.8356,9.7992 8.8856,9.5242 L9.3556,6.8642 L10.0426,6.8642 C10.0426,6.8642 10.1016,6.8662 10.1136,6.8032 L10.1906,6.3692 C10.1966,6.3282 10.1786,6.3022 10.1226,6.3022 L9.4556,6.3022 C9.4586,6.2872 9.4896,6.0522 9.5666,5.8322 C9.5986,5.7372 9.6606,5.6612 9.7126,5.6092 C9.7636,5.5572 9.8226,5.5212 9.8866,5.5002 C9.9536,5.4792 10.0286,5.4682 10.1116,5.4682 C10.1736,5.4682 10.2356,5.4762 10.2826,5.4852 C10.3466,5.4992 10.3716,5.5062 10.3896,5.5112 C10.4566,5.5322 10.4656,5.5122 10.4796,5.4792 L10.6386,5.0412 C10.6556,4.9942 10.6166,4.9742 10.6006,4.9682 Z"/>
	</g>
</svg>

<svg xmlns="http://www.w3.org/2000/svg" viewBox="0 0 16 16">
	<g fill="none" fill-rule="evenodd">
		<path class="ti-file-salesforce-background" fill="#0E99D9" fill-rule="nonzero" d="M6.658 3.722a2.801 2.801 0 0 1 2.028-.87c1.057 0 1.98.588 2.47 1.462.426-.19.898-.296 1.395-.296 1.904 0 3.45 1.558 3.45 3.48 0 1.921-1.546 3.48-3.45 3.48-.233 0-.46-.025-.68-.069a2.521 2.521 0 0 1-3.304 1.038 2.878 2.878 0 0 1-5.348-.13 2.684 2.684 0 0 1-.549.057C1.195 11.874 0 10.666 0 9.176c0-.999.537-1.87 1.335-2.338a3.106 3.106 0 0 1 2.852-4.337c1.007 0 1.903.48 2.471 1.221"/>
		<path d="M5.008 9.167c-.022.06.009.072.016.082.068.049.135.085.205.124.367.195.715.252 1.077.252.738 0 1.197-.393 1.197-1.025v-.013c0-.585-.517-.797-1.003-.951l-.063-.02c-.367-.119-.683-.221-.683-.463v-.012c0-.206.186-.358.472-.358.317 0 .695.106.937.24 0 0 .073.046.099-.023.014-.038.137-.368.149-.404.015-.039-.01-.068-.035-.083a2.096 2.096 0 0 0-1.058-.284h-.074c-.676 0-1.148.409-1.148.994v.012c0 .616.52.817 1.009.956l.078.024c.355.109.662.203.662.453v.013c0 .229-.2.399-.521.399-.125 0-.522-.002-.951-.274-.052-.03-.082-.052-.122-.076-.021-.014-.074-.036-.097.033l-.146.404zM10.6 4.968a1.564 1.564 0 0 0-.489-.071c-.378 0-.675.107-.884.318-.208.21-.35.527-.42.946l-.025.141h-.474s-.058-.002-.07.061l-.077.434c-.006.041.01.067.067.067h.462l-.47 2.612c-.035.21-.077.383-.124.514-.045.13-.09.227-.145.297a.392.392 0 0 1-.191.148.813.813 0 0 1-.413.016c-.05-.009-.075-.02-.112-.036 0 0-.054-.02-.076.033l-.155.425c-.014.041.006.073.033.083.06.021.107.036.19.055.116.028.215.03.306.03.192 0 .367-.028.512-.08a.97.97 0 0 0 .386-.269c.12-.134.197-.275.27-.467.073-.19.134-.426.184-.7l.47-2.66h.687s.059.001.07-.062l.078-.434c.006-.04-.012-.067-.068-.067h-.667c.003-.015.034-.25.11-.47a.593.593 0 0 1 .147-.223.43.43 0 0 1 .174-.109.75.75 0 0 1 .225-.032.92.92 0 0 1 .17.017c.065.014.09.021.108.026.067.021.076.001.09-.032l.159-.438c.017-.047-.022-.067-.038-.073" class="ti-file-salesforce-foreground" fill="#FFF" fill-rule="nonzero"/>
	</g>
</svg>
